frontend/public/svg/interface/user-male.svg

<svg width="154" height="139" viewBox="0 0 154 139" fill="none" xmlns="http://www.w3.org/2000/svg">
<g clip-path="url(#clip0)">
<path d="M76.6855 71.5615C65.6857 70.9757 55.8861 69.1054 47.7116 62.3051C41.7686 57.3606 38.2463 50.9588 36.7987 43.4632C33.6317 27.0857 42.6463 12.8772 56.1894 5.89224C65.6228 1.0266 75.5581 -0.855128 86.1177 0.77602C95.1291 2.16731 101.72 7.2487 107.058 14.2679C108.865 16.6451 110.987 18.9033 112.244 21.5559C114.841 27.0416 117.049 32.6689 115.551 39.0629C114.148 45.0425 112.412 50.8119 108.506 55.6989C101.648 64.2794 92.9826 69.7286 81.8758 70.9402C79.8933 71.1555 77.9212 71.4128 76.6855 71.5615ZM46.4202 39.9973C47.6111 48.8674 52.006 55.2204 60.2239 58.5021C63.5488 59.7191 67.0069 60.538 70.5253 60.941C81.8888 62.547 91.6425 59.6001 98.8685 50.236C102.12 46.2124 103.704 41.0997 103.295 35.9481C94.099 34.2445 85.7793 31.1639 79.0382 24.457C70.3509 34.3228 58.8442 37.9304 46.4181 39.9973H46.4202Z" fill="black"/>
<path d="M95.7339 137.907C81.8738 137.907 68.013 137.836 54.1544 137.928C42.1912 138.007 30.2319 138.35 18.2669 138.403C14.9469 138.425 11.6336 138.098 8.38211 137.429C2.30359 136.153 0.343106 132.725 1.87245 126.697C3.08673 121.913 5.56776 117.71 8.18172 113.601C18.7984 96.8872 33.9953 85.9476 52.2918 78.9375C62.2227 75.0506 72.7768 72.9883 83.444 72.8493C98.8963 72.7342 113.246 76.4697 125.57 86.4402C134.336 93.4348 141.524 102.193 146.667 112.145C148.186 115.095 149.811 118.012 151.039 121.082C152.127 123.729 152.905 126.492 153.359 129.317C154.013 133.713 151.627 136.648 147.246 137.176C144.173 137.575 141.079 137.797 137.979 137.84C123.898 137.91 109.816 137.871 95.7339 137.871V137.907ZM142.397 127.433C142.448 126.851 142.543 126.609 142.475 126.426C137.953 114.457 131.542 103.723 121.671 95.3336C115.882 90.4143 109.494 86.4861 102.035 84.5505C92.1086 82.062 81.7668 81.6935 71.6876 83.4695C46.6982 87.5845 26.735 99.7092 13.1076 121.389C11.658 123.695 10.5034 126.188 9.13486 128.735C13.6821 130.051 17.8222 129.526 22.0271 129.272C30.2015 128.779 38.4038 128.6 46.5978 128.555C72.3204 128.416 98.0445 128.432 123.767 128.31C129.522 128.283 135.275 127.94 141.028 127.725C141.492 127.664 141.95 127.566 142.397 127.431V127.433Z" fill="black"/>
</g>
<defs>
<clipPath id="clip0">
<rect width="153" height="139" fill="white" transform="translate(0.777344)"/>
</clipPath>
</defs>
</svg>

<svg xmlns="http://www.w3.org/2000/svg" width="154" height="139" fill="none" viewBox="0 0 154 139"><g fill="#000" clip-path="url(#a)"><path d="M76.686 71.562c-11-.586-20.8-2.457-28.974-9.257-5.943-4.944-9.466-11.346-10.913-18.842-3.167-16.377 5.847-30.586 19.39-37.57C65.623 1.026 75.56-.856 86.118.775c9.011 1.391 15.602 6.473 20.94 13.492 1.807 2.377 3.929 4.635 5.186 7.288 2.597 5.486 4.805 11.113 3.307 17.507-1.403 5.98-3.139 11.749-7.045 16.636-6.858 8.58-15.523 14.03-26.63 15.241-1.983.216-3.955.473-5.19.621M46.42 39.997c1.191 8.87 5.586 15.223 13.804 18.505a44.8 44.8 0 0 0 10.301 2.439c11.364 1.606 21.117-1.34 28.343-10.705a20.2 20.2 0 0 0 4.427-14.288c-9.196-1.703-17.516-4.784-24.257-11.491-8.687 9.866-20.194 13.473-32.62 15.54zm49.314 97.91c-13.86 0-27.721-.071-41.58.021-11.963.079-23.922.422-35.887.475a47.5 47.5 0 0 1-9.885-.974c-6.078-1.276-8.039-4.704-6.51-10.732 1.215-4.784 3.696-8.987 6.31-13.096 10.616-16.714 25.813-27.653 44.11-34.663a88.6 88.6 0 0 1 31.152-6.089c15.452-.115 29.802 3.62 42.126 13.591a79.7 79.7 0 0 1 21.097 25.705c1.519 2.95 3.144 5.867 4.372 8.937a37.2 37.2 0 0 1 2.32 8.235c.654 4.396-1.732 7.331-6.113 7.859a81 81 0 0 1-9.267.664c-14.081.07-28.163.031-42.245.031zm46.663-10.474c.051-.582.146-.824.078-1.007-4.522-11.969-10.933-22.703-20.804-31.092-5.789-4.92-12.177-8.848-19.636-10.784a72.8 72.8 0 0 0-30.347-1.08c-24.99 4.115-44.953 16.24-58.58 37.919-1.45 2.306-2.605 4.799-3.973 7.346 4.547 1.316 8.687.791 12.892.537 8.174-.493 16.377-.672 24.57-.717 25.723-.139 51.448-.123 77.17-.245 5.755-.027 11.508-.37 17.261-.585a8.6 8.6 0 0 0 1.369-.294z"/></g><defs><clipPath id="a"><path fill="#fff" d="M.777 0h153v139h-153z"/></clipPath></defs></svg>
